svg/head_heart.svg

<svg xmlns="http://www.w3.org/2000/svg" viewBox="0 0 24 24"><path d="M13 3C9.23 3 6.19 5.95 6 9.66l-1.92 2.53c-.24.31 0 .81.42.81H6v3c0 1.11.89 2 2 2h1v3h7v-4.69c2.37-1.12 4-3.51 4-6.31 0-3.86-3.12-7-7-7m4 5.83c0 1.54-1.36 2.77-3.42 4.64L13 14l-.58-.53C10.36 11.6 9 10.37 9 8.83c0-1.2.96-2.19 2.16-2.2h.04c.69 0 1.35.31 1.8.83.45-.52 1.11-.83 1.8-.83 1.2-.01 2.2.96 2.2 2.16z"/></svg>

<?xml version="1.0" encoding="UTF-8"?><!DOCTYPE svg PUBLIC "-//W3C//DTD SVG 1.1//EN" "http://www.w3.org/Graphics/SVG/1.1/DTD/svg11.dtd"><svg xmlns="http://www.w3.org/2000/svg" xmlns:xlink="http://www.w3.org/1999/xlink" version="1.1" id="mdi-head-heart" width="24" height="24" viewBox="0 0 24 24"><path d="M13 3C9.23 3 6.19 5.95 6 9.66L4.08 12.19C3.84 12.5 4.08 13 4.5 13H6V16C6 17.11 6.89 18 8 18H9V21H16V16.31C18.37 15.19 20 12.8 20 10C20 6.14 16.88 3 13 3M17 8.83C17 10.37 15.64 11.6 13.58 13.47L13 14L12.42 13.47C10.36 11.6 9 10.37 9 8.83C9 7.63 9.96 6.64 11.16 6.63H11.2C11.89 6.63 12.55 6.94 13 7.46C13.45 6.94 14.11 6.63 14.8 6.63C16 6.62 17 7.59 17 8.79V8.83Z" /></svg>
